X:65
T:Humours of Ennistymon
Z: id:dc-jig-54
M:6/8
L:1/8
K:G Major
zA|B3 GBd|cBc ABc|B3 GBd|cAG FGA|!
B3 GBd|cBc ABc|ded cAF|AGF G:|!
ze|f3 fed|cAG FGA|g3 gfg|afd d2g|!
fag fed|cAG FGA|BdB cAF|AGF G:|!
Bd|gdB gdB|ecA ecA|BAB GBd|cAG F|!
[1 Ad|gdB gdB|ecA ecA|BAB GBd|cAF G:|!
[2 GA|B3 GBd|cBc ABc|ded cAF|AGF G|]!

